X:2485
T:Harry Cox's Schottische
O:england
M:4/4
L:1/8
K:G
|:d2 (3dcB A2G2|E3/2A/2A3/2G/2 F3/2E/2 D2|
d2 (3dcB A2G2|E3/2A/2G3/2F/2 G2G2:|
|:B3/2A/2  (3GFE D3/2B,/2 D2|G3/2F/2 G/2B3/2 A2A2|
B3/2A/2  (3GFE D3/2B,/2 D2|E3/2A/2G3/2F/2 G2G2:|


